usr/share/icons/biglinux-icons-material/scalable/mimetypes/application-x-mobipocket-ebook.svg

<svg width="24" height="24" viewBox="0 0 24 24" fill="none" xmlns="http://www.w3.org/2000/svg">
<rect x="1" y="1" width="22" height="22" rx="6.6" fill="url(#paint0_radial_21_273)"/>
<path d="M4 6.00008V18.2668H9.86676C11.053 18.2669 11.7852 19.2233 11.7852 19.2233L11.7866 19.2251L11.9959 19.5027L12.211 19.229L12.2129 19.2266C12.2129 19.2266 12.9645 18.2854 14.1334 18.2667H20V6H14.1334C13.1079 6 12.5548 6.4412 12.186 6.79948L12.0001 6.98022L11.8142 6.79948C11.4453 6.44118 10.8919 6 9.86678 6L4 6.00008ZM4.53334 6.53342H9.86672C11.0598 6.53353 11.7842 7.48915 11.7842 7.48915L12.0001 7.77796L12.2149 7.49071C12.2149 7.49071 12.9403 6.53342 14.1334 6.53342H19.4668V17.7334H14.1288C13.1145 17.7481 12.5568 18.1882 12.1879 18.5391L12.002 18.7162L11.8181 18.5367C11.4585 18.1862 10.8487 17.6843 9.86682 17.7334H4.53344V6.79991L4.53334 6.53342Z" fill="#999999"/>
<path d="M8.53352 8.40009V8.66675H10.4002V8.40009H8.53352ZM13.6002 8.40009V8.66675H18.4002V8.40009H13.6002ZM8.53352 9.46676V9.73343H10.4002V9.46676H8.53352ZM13.6002 9.46676V9.73343H18.4002V9.46676H13.6002ZM8.53352 10.5334V10.8001H10.4002V10.5334H8.53352ZM13.6002 10.5334V10.8001H18.4002V10.5334H13.6002ZM5.60014 11.6001V11.8668H10.4001V11.6001H5.60014ZM13.6002 11.6001V11.8668H18.4002V11.6001H13.6002ZM5.60014 12.6668V12.9335H10.4001V12.6668H5.60014ZM13.6002 12.6668V12.9335H18.4002V12.6668H13.6002ZM5.60014 13.7335V14.0001H10.4001V13.7335H5.60014ZM13.6002 13.7335V14.0001H18.4002V13.7335H13.6002ZM5.60014 14.8001V15.0668H10.4001V14.8001H5.60014ZM13.6002 14.8001V15.0668H18.4002V14.8001H13.6002ZM5.60014 15.8668V16.1335H10.4001V15.8668H5.60014ZM13.6002 15.8668V16.1335H16.2669V15.8668H13.6002Z" fill="#999999"/>
<path d="M6.65278 8.40009L5.80705 10.6287H5.5993V10.8002H6.1993V10.6287H6.00722L6.20761 10.1141H7.20196L7.4021 10.6287H7.14259V10.8002H8.00328V10.6287H7.76585L6.91991 8.40009H6.65278ZM6.70476 8.78591L7.14257 9.94331H6.27429L6.70476 8.78591Z" fill="#808080"/>
<defs>
<radialGradient id="paint0_radial_21_273" cx="0" cy="0" r="1" gradientUnits="userSpaceOnUse" gradientTransform="translate(17.5 1) rotate(116.565) scale(24.5967)">
<stop stop-color="#F4F4F4"/>
<stop offset="1" stop-color="#BBBBBB"/>
</radialGradient>
</defs>
</svg>

<svg xmlns="http://www.w3.org/2000/svg" width="24" height="24" fill="none"><rect width="22" height="22" x="1" y="1" fill="url(#a)" rx="6.6"/><path fill="#999" d="M4 6v12.267h5.867c1.186 0 1.918.956 1.918.956l.002.002.209.278.215-.274.002-.002s.752-.942 1.92-.96H20V6h-5.867c-1.025 0-1.578.441-1.947.8L12 6.98l-.186-.18c-.369-.359-.922-.8-1.947-.8H4Zm.533.533h5.334c1.193 0 1.917.956 1.917.956l.216.289.215-.287s.725-.958 1.918-.958h5.334v11.2h-5.338c-1.014.015-1.572.455-1.941.806l-.186.177-.184-.18c-.36-.35-.97-.852-1.951-.803H4.533v-11.2Z"/><path fill="#999" d="M8.534 8.4v.267H10.4V8.4H8.534Zm5.066 0v.267h4.8V8.4h-4.8ZM8.534 9.467v.266H10.4v-.266H8.534Zm5.066 0v.266h4.8v-.266h-4.8Zm-5.066 1.066v.267H10.4v-.267H8.534Zm5.066 0v.267h4.8v-.267h-4.8Zm-8 1.067v.267h4.8V11.6H5.6Zm8 0v.267h4.8V11.6h-4.8Zm-8 1.067v.267h4.8v-.267H5.6Zm8 0v.267h4.8v-.267h-4.8Zm-8 1.066V14h4.8v-.267H5.6Zm8 0V14h4.8v-.267h-4.8Zm-8 1.067v.267h4.8V14.8H5.6Zm8 0v.267h4.8V14.8h-4.8Zm-8 1.067v.267h4.8v-.267H5.6Zm8 0v.267h2.667v-.267H13.6Z"/><path fill="gray" d="m6.653 8.4-.846 2.229H5.6v.171h.6v-.171h-.192l.2-.515h.995l.2.515h-.26v.171h.861v-.171h-.237L6.92 8.4h-.267Zm.052.386.438 1.157h-.869l.43-1.157Z"/><defs><radialGradient id="a" cx="0" cy="0" r="1" gradientTransform="rotate(116.565 8.441 5.908) scale(24.5967)" gradientUnits="userSpaceOnUse"><stop stop-color="#F4F4F4"/><stop offset="1" stop-color="#BBB"/></radialGradient></defs></svg>
